X: 51
M: C|
L: 1/8
K: D
[|\
|:\
f<dd>f e<cc>e | d<BB>d A<FF>g |\
f<dd>f e<cc>A | (3Bcd (3AGF E2-(E<g) |
f<dd>f e<cc>e | d<BB>d A<FF>D |\
(3EFG (3FGA (3GAB (3ABc | (3dcB (3AGF E2-(E<e) |]

